src/assets/icons/adwaita/mimetypes/image-vnd.djvu.svg

<?xml version="1.0" encoding="UTF-8" standalone="no"?>
<svg
   height="128px"
   viewBox="0 0 128 128"
   width="128px"
   version="1.1"
   id="image_vnd_djvu_svg35"
   xml:space="preserve"
   xmlns:xlink="http://www.w3.org/1999/xlink"
   xmlns="http://www.w3.org/2000/svg"
   xmlns:svg="http://www.w3.org/2000/svg"><defs
     id="image_vnd_djvu_defs39"><linearGradient
       id="image_vnd_djvu_linearGradient3"><stop
         style="stop-color:#8f83af;stop-opacity:1;"
         offset="0.40612346"
         id="image_vnd_djvu_stop3" /><stop
         style="stop-color:#f1eff5;stop-opacity:1;"
         offset="0.69655252"
         id="image_vnd_djvu_stop6" /><stop
         style="stop-color:#8f83af;stop-opacity:1;"
         offset="0.87938023"
         id="image_vnd_djvu_stop8" /><stop
         style="stop-color:#c7c1d7;stop-opacity:1;"
         offset="1"
         id="image_vnd_djvu_stop5" /></linearGradient><linearGradient
       xlink:href="#image_vnd_djvu_linearGradient3"
       id="image_vnd_djvu_linearGradient5"
       x1="10.591705"
       y1="45.996137"
       x2="80.591881"
       y2="45.996137"
       gradientUnits="userSpaceOnUse" /></defs><linearGradient
     id="image_vnd_djvu_a"
     gradientUnits="userSpaceOnUse"
     x1="36"
     x2="60"
     y1="68"
     y2="68"><stop
       offset="0"
       stop-color="#ed336c"
       id="image_vnd_djvu_stop2" /><stop
       offset="1"
       stop-color="#ffa348"
       id="image_vnd_djvu_stop4" /></linearGradient><linearGradient
     id="image_vnd_djvu_b"
     gradientTransform="matrix(0 1 -1 0 144 -32)"
     gradientUnits="userSpaceOnUse"
     x1="72"
     x2="96"
     y1="68"
     y2="68"><stop
       offset="0"
       stop-color="#404ce6"
       id="image_vnd_djvu_stop7" /><stop
       offset="1"
       stop-color="#c061cb"
       id="image_vnd_djvu_stop9" /></linearGradient><linearGradient
     id="image_vnd_djvu_c"
     gradientUnits="userSpaceOnUse"
     x1="68.84919"
     x2="95.257637"
     y1="84"
     y2="84"><stop
       offset="0"
       stop-color="#33d1c6"
       id="image_vnd_djvu_stop12" /><stop
       offset="1"
       stop-color="#1c25d8"
       id="image_vnd_djvu_stop14" /></linearGradient><path
     style="display:inline;fill:#714ba7;fill-opacity:1;stroke:none;stroke-width:0.125;stroke-linejoin:round;stroke-miterlimit:4;stroke-dasharray:none;stroke-opacity:1;enable-background:new"
     clip-path="none"
     d="m 27.978072,8.0000006 h 50.000002 l 30.042896,29.9178934 10e-4,74.060006 c 8e-5,4.432 -3.6122,8.0221 -8.044196,8.0221 H 27.978011 c -4.431999,0 -7.999999,-3.568 -7.999999,-8.00001 V 16 c 0,-4.431999 3.568,-7.9999994 7.999999,-7.9999994 z"
     id="image_vnd_djvu_path4411" /><rect
     style="opacity:1;fill:#f89c12;fill-opacity:1;stroke-width:0.706943"
     id="image_vnd_djvu_rect4"
     width="33.157688"
     height="32.177788"
     x="23.645979"
     y="87.893242"
     transform="matrix(0.92765397,-0.37344091,0.3597199,0.93306034,0,0)"
     rx="4.0002337"
     ry="4.0014582" /><path
     id="image_vnd_djvu_path3"
     style="fill:url(#image_vnd_djvu_linearGradient5);fill-opacity:1;stroke-width:0.82626"
     d="m 20.613281,12.863281 c -1.516323,0.853393 -2.944966,1.915669 -4.234375,3.205078 -7.716268,7.716259 -7.716268,20.328658 0,28.044922 l 3.59961,3.597657 0.511718,0.511718 26.269532,26.271485 c 7.716258,7.716259 20.32866,7.716259 28.044922,0 7.716256,-7.716259 7.716256,-20.328663 0,-28.044922 L 53.773438,25.416016 c -5.135042,-5.135044 -13.564179,-5.135042 -18.699219,0 -5.135048,5.135043 -5.135048,13.562216 0,18.697265 l 21.035156,21.033203 c 2.581219,2.581221 6.766436,2.581221 9.347656,0 v -2 L 39.75,39.439453 c -2.711961,-2.500972 -2.6086,-6.74101 0,-9.349609 2.608602,-2.608601 6.739057,-2.608604 9.347656,0 L 70.130859,51.125 c 5.189821,5.189813 5.189821,13.505504 0,18.695312 -5.189813,5.189821 -13.507454,5.189825 -18.697265,0 L 21.052734,39.439453 c -0.200341,-0.200341 -0.377626,-0.413747 -0.5625,-0.623047 -0.181881,-0.205912 -0.344807,-0.422877 -0.511718,-0.636718 -3.722027,-4.768541 -3.72238,-11.41135 0,-16.179688 v -4 -2 c 0,-1.11485 0.226272,-2.174246 0.634765,-3.136719 z" /><path
     style="display:inline;vector-effect:none;fill:#f89c12;fill-opacity:1;stroke:none;stroke-width:0.125;stroke-linecap:butt;stroke-linejoin:round;stroke-miterlimit:4;stroke-dasharray:none;stroke-dashoffset:0;stroke-opacity:1;enable-background:new"
     d="M 77.978074,8.0000006 V 30.000002 c 0,4.432 3.610527,7.923448 8.042527,7.923448 l 22.000369,-0.0055 z"
     id="image_vnd_djvu_path4413" /><path
     id="image_vnd_djvu_path2"
     style="fill:#e3e0eb;fill-opacity:1;stroke-width:0.82626"
     d="M 23.013672 9.7109375 C 20.597294 10.672459 18.330961 12.116304 16.378906 14.068359 C 8.6626375 21.784618 8.6626375 34.397017 16.378906 42.113281 L 19.978516 45.710938 L 20.490234 46.222656 L 46.759766 72.494141 C 54.476024 80.2104 67.088428 80.2104 74.804688 72.494141 C 82.520945 64.777882 82.520945 52.165478 74.804688 44.449219 L 53.773438 23.416016 C 48.638396 18.280972 40.209259 18.280974 35.074219 23.416016 C 29.939171 28.551059 29.939171 36.978232 35.074219 42.113281 L 56.109375 63.146484 C 58.690594 65.727705 62.875811 65.727705 65.457031 63.146484 L 39.75 37.439453 C 37.1414 34.830852 37.1414 30.698443 39.75 28.089844 C 42.358602 25.481243 46.489057 25.48124 49.097656 28.089844 L 70.130859 49.125 C 75.32068 54.314813 75.32068 62.630502 70.130859 67.820312 C 64.941046 73.010133 56.623405 73.010136 51.433594 67.820312 L 21.052734 37.439453 C 20.852393 37.239112 20.675108 37.025706 20.490234 36.816406 C 20.308353 36.610494 20.145427 36.393529 19.978516 36.179688 C 16.256489 31.411148 16.256136 24.768338 19.978516 20 L 19.978516 16 C 19.978516 13.731499 20.916891 11.693426 22.423828 10.240234 C 22.52231 10.141725 22.627893 10.051155 22.732422 9.9589844 C 22.792786 9.9065717 22.850169 9.8513875 22.912109 9.8007812 C 22.947105 9.7720965 22.978081 9.7389153 23.013672 9.7109375 z " /></svg>

<svg xmlns="http://www.w3.org/2000/svg" xmlns:xlink="http://www.w3.org/1999/xlink" xml:space="preserve" width="128" height="128" viewBox="0 0 128 128"><defs><linearGradient id="image_vnd_djvu_a"><stop offset=".406" style="stop-color:#8f83af;stop-opacity:1"/><stop offset=".697" style="stop-color:#f1eff5;stop-opacity:1"/><stop offset=".879" style="stop-color:#8f83af;stop-opacity:1"/><stop offset="1" style="stop-color:#c7c1d7;stop-opacity:1"/></linearGradient><linearGradient xlink:href="#image_vnd_djvu_a" id="image_vnd_djvu_b" x1="10.592" x2="80.592" y1="45.996" y2="45.996" gradientUnits="userSpaceOnUse"/></defs><path d="M27.978 8h50l30.043 29.918.001 74.06c0 4.432-3.612 8.022-8.044 8.022h-72c-4.432 0-8-3.568-8-8V16c0-4.432 3.568-8 8-8" style="display:inline;fill:#714ba7;fill-opacity:1;stroke:none;stroke-width:.125;stroke-linejoin:round;stroke-miterlimit:4;stroke-dasharray:none;stroke-opacity:1"/><rect width="33.158" height="32.178" x="23.646" y="87.893" rx="4" ry="4.001" style="opacity:1;fill:#f89c12;fill-opacity:1;stroke-width:.706943" transform="matrix(.92765 -.37344 .35972 .93306 0 0)"/><path d="M20.613 12.863a19.5 19.5 0 0 0-4.234 3.205c-7.716 7.717-7.716 20.329 0 28.045l3.6 3.598.511.512 26.27 26.271c7.716 7.716 20.328 7.716 28.045 0 7.716-7.716 7.716-20.329 0-28.045L53.773 25.416c-5.135-5.135-13.564-5.135-18.699 0s-5.135 13.562 0 18.697L56.11 65.146a6.61 6.61 0 0 0 9.348 0v-2L39.75 39.44c-2.712-2.5-2.609-6.74 0-9.35a6.56 6.56 0 0 1 9.348 0L70.13 51.126a13.17 13.17 0 0 1 0 18.695 13.173 13.173 0 0 1-18.697 0L21.053 39.44c-.2-.2-.378-.414-.563-.624-.182-.206-.345-.422-.511-.636a13.12 13.12 0 0 1 0-16.18v-6c0-1.115.226-2.174.634-3.137" style="fill:url(#image_vnd_djvu_b);fill-opacity:1;stroke-width:.82626"/><path d="M77.978 8v22c0 4.432 3.61 7.923 8.043 7.923l22-.005z" style="display:inline;vector-effect:none;fill:#f89c12;fill-opacity:1;stroke:none;stroke-width:.125;stroke-linecap:butt;stroke-linejoin:round;stroke-miterlimit:4;stroke-dasharray:none;stroke-dashoffset:0;stroke-opacity:1"/><path d="M23.014 9.71a19.6 19.6 0 0 0-6.635 4.358c-7.716 7.717-7.716 20.329 0 28.045l3.6 3.598.511.512 26.27 26.271c7.716 7.716 20.328 7.716 28.045 0 7.716-7.716 7.716-20.329 0-28.045L53.773 23.416c-5.135-5.135-13.564-5.135-18.699 0s-5.135 13.562 0 18.697L56.11 63.146a6.61 6.61 0 0 0 9.348 0L39.75 37.44a6.563 6.563 0 0 1 0-9.35 6.56 6.56 0 0 1 9.348 0L70.13 49.126a13.17 13.17 0 0 1 0 18.695 13.173 13.173 0 0 1-18.697 0L21.053 37.44c-.2-.2-.378-.414-.563-.624-.182-.206-.345-.422-.511-.636a13.12 13.12 0 0 1 0-16.18v-4c0-2.269.938-4.307 2.445-5.76.098-.098.204-.189.308-.281.06-.052.118-.108.18-.158.035-.029.066-.062.102-.09" style="fill:#e3e0eb;fill-opacity:1;stroke-width:.82626"/></svg>
